X:1
T:All’ Ehr’ und Lob, 88.88.88
T:Kirchengesangbuch (Strassbur
T:All’ Ehr’ und Lob, 88.88.88
T:Public Domain
C:Kirchengesangbuch (Strassbur
Z:Public Domain
%%score ( 1 2 ) ( 3 4 )
L:1/8
M:4/4
K:G
V:1 treble 
V:2 treble 
V:3 bass 
V:4 bass 
V:1
 [DG]4 [EG]2 [FA]2 | [GB]2 [EG]2 [Gc]2 [Fc]2 | [GB]6 [FA]2 | [GB]2 [Gc]2 [Fd]2 [GB]2 | %4
 [Ec]2 [DA]2 [B,G]4- | [B,G]2 [Ec]2 [Ec]2 [Fc]2 | [GB]2 [EG]2 [EA]2 [DF]2 | [^CE]6 D2 | %8
 [DG]2 [FA]2 [GB]2 [Gc]2 | [GA]2 [FA]2 [DG]4- | [DG]2 [Dd]2 [Dd]2 [GB]2 | [Gc]2 [Ad]2 [GB]2 [FA]2 | %12
 [GB]6 [Gc]2 | [GB]2 [FA]2 [EG]2 D2 | [B,G]2 [DB]2 [DA]4 | [DG]8 |] %16
V:2
 x8 | x8 | x8 | x8 | x8 | x8 | x8 | x6 D2 | x8 | x8 | x8 | x8 | x8 | x6 D2 | x8 | x8 |] %16
V:3
 [G,B,]4 [E,B,]2 [D,D]2 | [B,,D]2 [E,B,]2 [C,E]2 [A,,C]2 | [G,,D]6 [D,D]2 | %3
 [G,D]2 [E,C]2 [D,A,]2 [E,G,]2 | [C,G,]2 [D,F,]2 [G,,G,]4- | [G,,G,]2 [C,G,]2 [C,G,]2 [A,,C]2 | %6
 [B,,D]2 [E,B,]2 [^C,A,]2 [D,A,]2 | [A,,A,]6 [D,F,]2 | [B,,G,]2 [A,,C]2 [G,,D]2 [C,E]2 | %9
 [D,D]2 [D,D]2 [G,,B,]4- | [G,,B,]2 [G,B,]2 [F,A,]2 [G,D]2 | [E,E]2 [F,D]2 [G,D]2 [A,C]2 | %12
 [G,D]6 [C,E]2 | [G,,D]2 [D,D]2 [E,B,]2 [F,A,]2 | (E,2 B,,2) G,2 F,2 | [G,,B,]8 |] %16
V:4
 x8 | x8 | x8 | x8 | x8 | x8 | x8 | x8 | x8 | x8 | x8 | x8 | x8 | x8 | G,4 D,4 | x8 |] %16

